X:118 
T:Mamma Nugent's Pet* (reel) 
S:Donnelly < P. Nugent
F:file ID: cre.4/118mama_np
B:CRE4.189 (Peata Mhamai)
N:'Nugent' added by me to distinguish this 'Mamma's Pet' from other tunes 
of the same name.
L:1/8
M:4/4
%Q:180
R:reel
K:G
"D modal"
F|Addc A2AG|E2cE DEFG|Addc ABcA|GEcE EDD2|
Addc A2 AG|E2cE DEFG|Adde fdcA|GEcE EDD:|
P:D major
K:D
A|d2 fd adfd|c2 ec gcec|d2 fd adfd|eaag eddA|
d2 fd adfd|c2 ec g2 fg|afge d2 cd|eaag edd :|

%%%

